X:1
T: Gillian's Apples
C: J-13
M: 6/8
Z:
R: jig
K: D
Bd| "G"g3 "D"B2A| "G"GAG GBd| "Em"efe edB| "D"dBA A2B|
    "G"g3 "D"B2A| "G"GBd g2a| "Em"bag "A"fge| "D"fdd d :|
|:\
e| "D"faa faa| faa agf| "G"gbb gbb| gbb bag|
   "D"faa faa| ede "G"g2a| "Em"bag "A"fge| "D"fdd d2 :|
%
